X: 2060
Q: "Reel."
M: C
L: 1/8
K: Am
|:\
vAeed cBA^G | Aeed c2B2 |\
vAE E/E/E (ucA)B^G |
[1 AE E/E/E (cA)Bd | BGGB d2(cB) :|\
[2 Aee^f gfge | dBGB edcB |]


